packages/dnb-eufemia/assets/icons/pause_medium.svg

<svg width="24" height="24" viewBox="0 0 24 24" fill="none" xmlns="http://www.w3.org/2000/svg">
<path d="M7.83333 3H6.16667C5.24619 3 4.5 3.73263 4.5 4.63636V19.3636C4.5 20.2674 5.24619 21 6.16667 21H7.83333C8.75381 21 9.5 20.2674 9.5 19.3636V4.63636C9.5 3.73263 8.75381 3 7.83333 3Z" stroke="black" stroke-width="1.5" stroke-linecap="round" stroke-linejoin="round"/>
<path d="M17.8333 3H16.1667C15.2462 3 14.5 3.73263 14.5 4.63636V19.3636C14.5 20.2674 15.2462 21 16.1667 21H17.8333C18.7538 21 19.5 20.2674 19.5 19.3636V4.63636C19.5 3.73263 18.7538 3 17.8333 3Z" stroke="black" stroke-width="1.5" stroke-linecap="round" stroke-linejoin="round"/>
</svg>

<svg width="24" height="24" viewBox="0 0 24 24" fill="none" xmlns="http://www.w3.org/2000/svg"><path d="M7.833 3H6.167C5.247 3 4.5 3.733 4.5 4.636v14.728c0 .903.746 1.636 1.667 1.636h1.666c.92 0 1.667-.733 1.667-1.636V4.636C9.5 3.733 8.754 3 7.833 3Zm10 0h-1.666c-.92 0-1.667.733-1.667 1.636v14.728c0 .903.746 1.636 1.667 1.636h1.666c.92 0 1.667-.733 1.667-1.636V4.636C19.5 3.733 18.754 3 17.833 3Z" stroke="#000" stroke-width="1.5" stroke-linecap="round" stroke-linejoin="round"/></svg>
